svg/device/homepod_fill.svg

<?xml version="1.0" encoding="UTF-8"?>
<svg width="24px" height="24px" viewBox="0 0 24 24" version="1.1" xmlns="http://www.w3.org/2000/svg" xmlns:xlink="http://www.w3.org/1999/xlink">
    <title>homepod_fill</title>
    <g id="Icon" stroke="none" stroke-width="1" fill="none" fill-rule="evenodd">
        <g id="Device" transform="translate(-720.000000, -432.000000)">
            <g id="homepod_fill" transform="translate(720.000000, 432.000000)">
                <path d="M24,0 L24,24 L0,24 L0,0 L24,0 Z M12.5935,23.2578 L12.5819,23.2595 L12.5109,23.295 L12.4919,23.2987 L12.4767,23.295 L12.4057,23.2595 C12.3958,23.2564 12.387,23.259 12.3821,23.2649 L12.378,23.2758 L12.3609,23.7031 L12.3659,23.7235 L12.3769,23.7357 L12.4805,23.8097 L12.4953,23.8136 L12.5071,23.8097 L12.6107,23.7357 L12.6233,23.7197 L12.6267,23.7031 L12.6096,23.2758 C12.6076,23.2657 12.601,23.2593 12.5935,23.2578 Z M12.8584,23.1453 L12.8445,23.1473 L12.6598,23.2397 L12.6499,23.2499 L12.6472,23.2611 L12.6651,23.6906 L12.6699,23.7034 L12.6784,23.7105 L12.8793,23.8032 C12.8914,23.8069 12.9022,23.803 12.9078,23.7952 L12.9118,23.7812 L12.8777,23.1665 C12.8753,23.1546 12.8674,23.147 12.8584,23.1453 Z M12.143,23.1473 C12.1332,23.1424 12.1222,23.1453 12.1156,23.1526 L12.1099,23.1665 L12.0758,23.7812 C12.0751,23.7927 12.0828,23.8019 12.0926,23.8046 L12.1083,23.8032 L12.3092,23.7105 L12.3186,23.7024 L12.3225,23.6906 L12.3404,23.2611 L12.3372,23.2485 L12.3278,23.2397 L12.143,23.1473 Z" id="MingCute" fill-rule="nonzero"></path>
                <path d="M3,9.5 C3,5.91015 5.91015,3 9.5,3 L14.5,3 C18.0899,3 21,5.91015 21,9.5 L21,15.5 C21,19.0899 18.0899,22 14.5,22 L9.5,22 C5.91015,22 3,19.0899 3,15.5 L3,9.5 Z M12,5 C10.4207,5 9.03245,5.21485 8.07359,5.53447 C7.59686,5.69338 7.27937,5.86078 7.09935,6 C7.27937,6.13922 7.59686,6.30662 8.07359,6.46553 C9.03245,6.78515 10.4207,7 12,7 C13.5793,7 14.9675,6.78515 15.9264,6.46553 C16.4031,6.30662 16.7206,6.13922 16.9006,6 C16.7206,5.86078 16.4031,5.69338 15.9264,5.53447 C14.9675,5.21485 13.5793,5 12,5 Z" id="形状" fill="#09244B"></path>
            </g>
        </g>
    </g>
</svg>

<svg xmlns="http://www.w3.org/2000/svg" width="24" height="24"><g fill="none" fill-rule="evenodd"><path d="M24 0v24H0V0h24ZM12.594 23.258l-.012.002-.071.035-.02.004-.014-.004-.071-.036c-.01-.003-.019 0-.024.006l-.004.01-.017.428.005.02.01.013.104.074.015.004.012-.004.104-.074.012-.016.004-.017-.017-.427c-.002-.01-.009-.017-.016-.018Zm.264-.113-.014.002-.184.093-.01.01-.003.011.018.43.005.012.008.008.201.092c.012.004.023 0 .029-.008l.004-.014-.034-.614c-.003-.012-.01-.02-.02-.022Zm-.715.002a.023.023 0 0 0-.027.006l-.006.014-.034.614c0 .012.007.02.017.024l.015-.002.201-.093.01-.008.003-.011.018-.43-.003-.012-.01-.01-.184-.092Z"/><path fill="#09244B" d="M3 9.5A6.5 6.5 0 0 1 9.5 3h5A6.5 6.5 0 0 1 21 9.5v6a6.5 6.5 0 0 1-6.5 6.5h-5A6.5 6.5 0 0 1 3 15.5v-6ZM12 5c-1.58 0-2.968.215-3.926.534-.477.16-.795.327-.975.466.18.14.498.307.975.466C9.032 6.786 10.42 7 12 7c1.58 0 2.967-.215 3.926-.534.477-.16.795-.327.975-.466-.18-.14-.498-.307-.975-.466C14.967 5.214 13.58 5 12 5Z"/></g></svg>
